X:1
T:Title
%%score { ( 1 3 ) | ( 2 4 ) }
L:1/8
M:6/8
K:Bb
V:1 treble nm="Grand Piano"
V:3 treble 
V:2 bass 
V:4 bass 
V:1
 z3 z2[Q:1/4=81] [DF] | [DF]>[DF][DF] [_DG]>[=DF][_D=E] | [DF]3 [B,D]2 [DF] | %3
 [Dd]>[Dd][Dd] [Ec]>[EB][EG] |[M:5/8] [DF]-[DF]- [DF]3 |[M:1/8] [DF] |[M:3/4] E>E EG- G/F/E | %7
 D3 [DFB]2 [DFB] | [CFA]>[CFA] [CFA][D=EB]- [DEB]/[CEA]/[B,EG] |[M:5/8] [A,F]- [A,F]3 z | %10
[M:1/8] F |[M:3/4] c>c cc- c/B/c | [Dd]3 [DB]2 [DB] | B>B BB- B/A/G |[M:5/8] A-A- A3 | %15
[M:1/8] [EA] |[M:3/4] [DB]>[DB] [DB][DB]- [DB]/[Ec]/[DB] | [FA]3 [EG]2 [Ge] | %18
 d>d d[=Ed]- [Ed]/[EB]/[_Ec] | [DB]6 | [Fd]2 [DB] [Ge]2 [Fd] | =E3 [Ec]3 | %22
 c>=B c[Ge]- [Ge]/[Fd]/[=E_d] | [Fd]6 | d>d dd- d/c/d |[M:7/8] [Ee]3 [Fd]3 [Gc] | %26
[M:3/4] B>B Bc- c/d/c |[M:5/8] [DB]-[DB]- [DB]3 |] %28
V:2
 z3 z2 [B,,F,] | [B,,F,]>[B,,F,][B,,F,] [B,,=E,]>[B,,F,][B,,G,] | [B,,F,]3 [B,,F,]2 [B,,F,] | %3
 [B,,F,]>[B,,F,][B,,F,] [B,,G,]>[B,,G,][B,,A,] |[M:5/8] [B,,B,]-[B,,B,]- [B,,B,]3 | %5
[M:1/8] [B,,B,] |[M:3/4] [F,A,C]>[F,A,C] [F,A,C][F,A,E]- [F,A,E]/[F,A,D]/[F,A,C] | %7
 [B,,F,B,]3 B,,2 B,, | C,>C, C,C,- C,/C,/C, |[M:5/8] F,- F,3 z |[M:1/8] F, | %11
[M:3/4] [F,A,E]>[F,A,E] [F,A,E][F,A,E]- [F,A,E]/[F,G,E]/[F,A,E] | [B,,B,]3 [B,,F,]2 [B,,F,] | %13
 [G,B,D]>[G,B,D] [G,B,D][E,G,_D]- [E,G,D]/[E,G,D]/[E,G,D] |[M:5/8] [D,^F,D]-[D,F,D]- [D,F,D]3 | %15
[M:1/8] [C,F,] |[M:3/4] [B,,F,]>[B,,F,] [B,,F,][B,,B,]- [B,,B,]/[B,,B,]/[B,,B,] | %17
 [E,B,]3 [E,B,]2 [E,B,] | [F,B,F]>[F,B,F] [F,B,F][C,B,]- [C,B,]/[C,G,]/[F,A,] | [B,,B,]6 | %20
 [B,,B,]3 [B,,B,]3 | [C,B,]2 [C,B,] [C,B,]2 C, | E>D E [F,A,]2 [F,A,] | [B,,B,]>D, .F,2 z2 | %24
 [G,=B,F]>[G,B,F] [G,B,F][G,B,F]- [G,B,F]/[G,A,F]/[G,B,F] |[M:7/8][K:bass] [C,C]3 [D,=B,]3 [E,C] | %26
[M:3/4] [F,DF]>[F,DF] [F,DF][F,A,E]- [F,A,E]/[F,A,F]/[F,A,E] |[M:5/8] [B,,B,]-[B,,B,]- [B,,B,]3 |] %28
V:3
 x6 | x6 | x6 | x6 |[M:5/8] x5 |[M:1/8] x |[M:3/4] x6 | x6 | x6 |[M:5/8] x5 |[M:1/8] x | %11
[M:3/4] x6 | x6 | x6 |[M:5/8] x5 |[M:1/8] x |[M:3/4] x6 | x6 | x6 | x6 | x6 | G2 .d2 z B, | x6 | %23
 z z/ B,/ B, B,3 | x6 |[M:7/8] x7 |[M:3/4] x6 |[M:5/8] x5 |] %28
V:4
 x6 | x6 | x6 | x6 |[M:5/8] x5 |[M:1/8] x |[M:3/4] x6 | x6 | x6 |[M:5/8] x5 |[M:1/8] x | %11
[M:3/4] x6 | x6 | x6 |[M:5/8] x5 |[M:1/8] x |[M:3/4] x6 | x6 | x6 | x6 | x6 | x6 | [F,A,]4 z2 | %23
 x6 | x6 |[M:7/8][K:bass] x7 |[M:3/4] x6 |[M:5/8] x5 |] %28

